X:1
T:Grabesruhe
T:Johann Gottlieb Naumann
T:Dorothea Charlotte Elisabeth Spangenberg 1781 
T:Grabesruhe
T:CPDL - Creative Commons Attribution Non Commercial 3.0
T:CPDL - Creative Commons Attribution Non Commercial 3.0
C:Johann Gottlieb Naumann
Z:Dorothea Charlotte Elisabeth Spangenberg
Z:CPDL - Creative Commons Attribution Non Commercial 3.0
%%score [ ( 1 2 ) ( 3 4 ) ]
L:1/8
Q:1/4=72
M:3/4
K:Ab
V:1 treble nm="Sopran\nAlt"
V:2 treble 
V:3 bass nm="Tenor\nBass"
V:4 bass 
V:1
!p!"^Langsam" EE E!<(!A!<)! Ac |!>(! B2!>)! A2 ce | d3 B cd |!>(! (c2 B2)!>)! z2 | %4
w: 1.~Ru- hig ist des To- des|Schlum- mer und der|Schoß der Er- de|kühl; _|
w: 2.~Uns'- re Seuf- zer, uns'- re|Trä- nen wer- den|e- wig dann ge-|stillt; _|
w: 3.~Läg' auch mei- nes, von den|Sor- gen die- ses|Le- bens nicht em-|pört, _|
 EE!<(! E!<)!A Ac |!>(! B2!>)! A2 ce | d3 B cd |!>(! (c2 !breath!B2)!>)!!<(! GB!<)! | %8
w: da stört uns'- re Ruh' kein|Kum- mer nicht der|Lei- den- schaf- ten|Spiel. _ Uns'- re|
w: uns'- re Wün- sche, un- ser|Seh- nen, al- les,|al- les wird er-|füllt. _ Her- zen,|
w: in der Er- de Schoß ver-|bor- gen, wo nichts|sei- nen Frie- den|stört! _ Küh- les|
 B3 G A!>(!B!>)! | G4!<(! A!<)!c | c3 A Bc |!>(! A4!>)!!p! AG |"^dim." F>F E2 E2 | %13
w: Sor- gen, groß und|klein, schlum- mern|al- le mit uns|ein, schlum- mern|al- le mit uns|
w: die sonst heiß ge-|wallt lie- gen|fühl- los dann und|kalt, lie- gen|fühl- los dann und|
w: Grab, o wann nimmst|du, mich in|dei- ne stil- le|Ruh', mich in|dei- ne stil- le|
!pp! !fermata!E4 z2 |] %14
w: ein.|
w: kalt.|
w: Ruh'?|
V:2
 CC CE EA | G2 A2 Ac | B3 G AB | (A2 G2) x2 | CC CE EA | G2 A2 Ac | B3 G AB | (A2 G2) EG | %8
 G3 E FG | E4 EA | A3 A GG | A4 EE | D>D C2 B,2 | C4 x2 |] %14
V:3
!p! A,A, A,!<(!C!<)! CE |!>(! D2!>)! C2 EE | E3 E EF |!>(! E4!>)! z2 | A,A,!<(! A,!<)!C CE | %5
!>(! D2!>)! C2 EE | E3 E EF |!>(! !breath!E4!>)!!<(! EE!<)! | E3 B, B,!>(!B,!>)! | B,4!<(! C!<)!E | %10
 E3 C DE |!>(! C4!>)!!p! A,A, |"^dim." A,>A, A,2 G,2 |!pp! !fermata!A,4 z2 |] %14
V:4
 A,,A,, A,,A,, A,,A,, | E,2 A,,2 A,A, | G,3 E, A,D, | E,4 x2 | A,,A,, A,,A,, A,,A,, | %5
 E,2 A,,2 A,A, | G,3 E, A,D, | E,4 E,E, | E,3 E, B,,B,, | E,4 A,,A,, | A,,3 A,, E,E, | A,,4 C,C, | %12
 D,>D, E,2 E,2 | A,,4 x2 |] %14

